X: 30366
T: Old Pigeon On The Gate, The
R: reel
M: 4/4
K: Gmajor
"G"G2BG dGBG|"F"=F2AF cFAF|"G"G2BG dGBG|1 "C"cBAG "D"^F/G/ADF:|2 "C"cBAG "D"^F/G/AD2||
"G"B/c/dgd B~G3|"A"AB^cd e2ed|"C"B/=c/dgd BGAB|1 "C"cBAG "D"F/G/AD2:|2 "C"cBAG "D"FADF||

